assets/img/tasses/TasseDiscord.svg

<?xml version="1.0" encoding="utf-8"?>
<!-- generated at drububu.com  -->
<!DOCTYPE svg PUBLIC "-//W3C//DTD SVG 1.1//EN" "http://www.w3.org/Graphics/SVG/1.1/DTD/svg11.dtd">
<svg version="1.1" preserveAspectRatio="xMinYMin meet" xmlns="http://www.w3.org/2000/svg" xmlns:xlink="http://www.w3.org/1999/xlink" x="0px" y="0px" width="22px" height="16px" viewBox="0 0 22 16">
<path d="M0 0h2v2h-2v-2z" fill="rgba(255,255,255,0)"/>
<path d="M2 0h14v2h-14v-2z" fill="rgb(38,63,145)"/>
<path d="M16 0h6v4h-2v-2h-4v-2z" fill="rgba(255,255,255,0)"/>
<path d="M0 2h2v10h-2v-10z" fill="rgb(38,63,145)"/>
<path d="M2 2h14v2h-14v-2z" fill="rgb(114,137,218)"/>
<path d="M16 2h4v2h-4v-2z" fill="rgb(38,63,145)"/>
<path d="M2 4h2v2h-2v-2z" fill="rgb(169,184,233)"/>
<path d="M4 4h10v2h2v4h-4v-4h-2v4h2v2h-6v-2h-4v-4h2v-2z" fill="rgb(255,255,255)"/>
<path d="M14 4h6v4h-2v-2h-4v-2z" fill="rgb(169,184,233)"/>
<path d="M20 4h2v4h-2v-4z" fill="rgb(38,63,145)"/>
<path d="M6 6h2v2h-2v-2z" fill="rgb(114,137,218)"/>
<path d="M10 6h2v2h-2v-2z" fill="rgb(114,137,218)"/>
<path d="M16 6h2v2h-2v-2z" fill="rgb(38,63,145)"/>
<path d="M6 8h2v2h-2v-2z" fill="rgb(224,230,248)"/>
<path d="M10 8h2v2h-2v-2z" fill="rgb(224,230,248)"/>
<path d="M16 8h2v2h-2v-2z" fill="rgb(169,184,233)"/>
<path d="M18 8h2v2h-2v-2z" fill="rgb(38,63,145)"/>
<path d="M20 8h2v8h-8v-2h2v-2h2v-2h2v-2z" fill="rgba(255,255,255,0)"/>
<path d="M2 10h2v2h-2v-2z" fill="rgb(169,184,233)"/>
<path d="M4 10h2v2h-2v-2z" fill="rgb(224,230,248)"/>
<path d="M12 10h2v2h-2v-2z" fill="rgb(224,230,248)"/>
<path d="M14 10h2v2h-2v-2z" fill="rgb(169,184,233)"/>
<path d="M16 10h2v2h-2v-2z" fill="rgb(38,63,145)"/>
<path d="M0 12h2v2h2v2h-4v-4z" fill="rgba(255,255,255,0)"/>
<path d="M2 12h2v2h-2v-2z" fill="rgb(38,63,145)"/>
<path d="M4 12h10v2h-10v-2z" fill="rgb(169,184,233)"/>
<path d="M14 12h2v2h-2v-2z" fill="rgb(38,63,145)"/>
<path d="M4 14h10v2h-10v-2z" fill="rgb(38,63,145)"/>
</svg>

<svg xmlns="http://www.w3.org/2000/svg" width="22" height="16" preserveAspectRatio="xMinYMin meet"><path fill="rgba(255,255,255,0)" d="M0 0h2v2H0V0z"/><path fill="#263F91" d="M2 0h14v2H2V0z"/><path fill="rgba(255,255,255,0)" d="M16 0h6v4h-2V2h-4V0z"/><path fill="#263F91" d="M0 2h2v10H0V2z"/><path fill="#7289DA" d="M2 2h14v2H2V2z"/><path fill="#263F91" d="M16 2h4v2h-4V2z"/><path fill="#A9B8E9" d="M2 4h2v2H2V4z"/><path fill="#FFF" d="M4 4h10v2h2v4h-4V6h-2v4h2v2H6v-2H2V6h2V4z"/><path fill="#A9B8E9" d="M14 4h6v4h-2V6h-4V4z"/><path fill="#263F91" d="M20 4h2v4h-2V4z"/><path fill="#7289DA" d="M6 6h2v2H6V6zM10 6h2v2h-2V6z"/><path fill="#263F91" d="M16 6h2v2h-2V6z"/><path fill="#E0E6F8" d="M6 8h2v2H6V8zM10 8h2v2h-2V8z"/><path fill="#A9B8E9" d="M16 8h2v2h-2V8z"/><path fill="#263F91" d="M18 8h2v2h-2V8z"/><path fill="rgba(255,255,255,0)" d="M20 8h2v8h-8v-2h2v-2h2v-2h2V8z"/><path fill="#A9B8E9" d="M2 10h2v2H2v-2z"/><path fill="#E0E6F8" d="M4 10h2v2H4v-2zM12 10h2v2h-2v-2z"/><path fill="#A9B8E9" d="M14 10h2v2h-2v-2z"/><path fill="#263F91" d="M16 10h2v2h-2v-2z"/><path fill="rgba(255,255,255,0)" d="M0 12h2v2h2v2H0v-4z"/><path fill="#263F91" d="M2 12h2v2H2v-2z"/><path fill="#A9B8E9" d="M4 12h10v2H4v-2z"/><path fill="#263F91" d="M14 12h2v2h-2v-2zM4 14h10v2H4v-2z"/></svg>
